X:17719
T:Traver's
R:Reel
Z:Transcribed by Henrik Norbeck.
M:C|
K:Ador
A2dA eAdA|~A2BG AGEG|A2dA eAdg|gedB GBdB|
A2dA eAdA|~A2BG AGEG|c3A ~B3c|dBAG EFGA:|
|:(3B^cded gedB|GBAF GED2|(3B^cded ~g3e|~a3f gfed|
(3B^cded gedB|GBAF GED2|c3A ~B3c|dBAG EFGB:|


